X:146
T:Linda Hickmans Birthday Bash
C:2010 L.E. McCullough
M:6/8
L:1/8
K:Amix
|:Ace ~a3 | fdf ~e3 | dff dgg | fed edB |
Ace ~a3 | fdf ~e3 | GBg  fed | edc e3:|
|:~d3 fed | ~d3 fed | ecA  AEA | cAc gfe |
|1 ~d3 fed | ~d3 fed | ~e3 ~g3 | fed e2f :|
|2 dcd fef | geg f2g | age fef | gdB GBd ||


